public/printxs.svg

<svg width="375" height="779" viewBox="0 0 375 779" fill="none" xmlns="http://www.w3.org/2000/svg">
<path d="M160.429 604.27H170.471" stroke="#1BFCB6" stroke-width="3"/>
<path d="M160.429 614.312H204.616" stroke="#1BFCB6" stroke-width="3"/>
<path d="M160.429 622.346H204.616" stroke="#1BFCB6" stroke-width="3"/>
<path d="M160.429 630.38H204.616" stroke="#1BFCB6" stroke-width="3"/>
<path d="M148.379 670.55V592.185C148.379 587.767 151.961 584.185 156.379 584.185H201.303C203.425 584.185 205.46 585.028 206.96 586.528L216.333 595.901C217.833 597.402 218.676 599.436 218.676 601.558V670.55" stroke="#1BFCB6" stroke-width="3"/>
<path d="M218.675 634.397H246.864C251.982 634.397 255.783 639.137 254.673 644.133L248.803 670.55" stroke="#1BFCB6" stroke-width="3"/>
<path d="M146.368 634.397H118.18C113.062 634.397 109.26 639.137 110.371 644.133L116.241 670.55" stroke="#1BFCB6" stroke-width="3"/>
<path d="M130.304 777V750.855C130.304 746.437 133.886 742.855 138.304 742.855H228.754C233.172 742.855 236.754 746.437 236.754 750.855V777" stroke="#1BFCB6" stroke-width="3"/>
<path d="M92.1411 732.813H276.922M236.752 709.716V709.716C236.752 712.489 234.504 714.737 231.731 714.737H135.324C132.55 714.737 130.302 712.489 130.302 709.716V709.716C130.302 706.942 132.55 704.694 135.324 704.694H231.731C234.504 704.694 236.752 706.942 236.752 709.716Z" stroke="#1BFCB6" stroke-width="3"/>
<path d="M92.1411 769V678.55C92.1411 674.132 95.7228 670.55 100.141 670.55H268.922C273.34 670.55 276.922 674.132 276.922 678.55V769C276.922 773.418 273.34 777 268.922 777H100.141C95.7228 777 92.1411 773.418 92.1411 769Z" stroke="#1BFCB6" stroke-width="3"/>
<circle cx="232.737" cy="686.617" r="6.53394" stroke="#1BFCB6" stroke-width="3"/>
<path d="M46.9775 296.523H327.894" stroke="#75F7BB" stroke-width="3" stroke-linecap="round" stroke-linejoin="round"/>
<path d="M78.1899 109.245C78.1899 105.106 79.8342 101.137 82.761 98.2099C85.6878 95.2832 89.6573 93.6389 93.7964 93.6389H281.074C285.213 93.6389 289.183 95.2832 292.11 98.2099C295.036 101.137 296.681 105.106 296.681 109.245V234.097C296.681 238.236 295.036 242.206 292.11 245.133C289.183 248.059 285.213 249.704 281.074 249.704H93.7964C89.6573 249.704 85.6878 248.059 82.761 245.133C79.8342 242.206 78.1899 238.236 78.1899 234.097V109.245Z" stroke="#75F7BB" stroke-width="3" stroke-linecap="round" stroke-linejoin="round"/>
<path d="M170.963 107.358H100.187C93.0073 107.358 87.187 113.178 87.187 120.358V224.903C87.187 232.083 93.0073 237.903 100.187 237.903H170.963C178.143 237.903 183.963 232.083 183.963 224.903V120.358C183.963 113.178 178.143 107.358 170.963 107.358Z" fill="white"/>
<path d="M94.6016 154.099H176.758" stroke="black"/>
<path d="M94.6016 167.689H176.758" stroke="black"/>
<path d="M94.6016 182.514H176.758" stroke="black" stroke-dasharray="9 9"/>
<path d="M94.6016 198.575H176.758" stroke="black"/>
<rect x="94.1899" y="119.094" width="75.362" height="3.70633" rx="1.85316" fill="url(#paint0_linear_730_10102)"/>
<rect x="94.1899" y="128.155" width="47.7704" height="3.70633" rx="1.85316" fill="url(#paint1_linear_730_10102)"/>
<rect x="94.1899" y="145.451" width="34.5924" height="3.70633" rx="1.85316" fill="url(#paint2_linear_730_10102)"/>
<rect x="94.1899" y="159.041" width="34.5924" height="3.70633" rx="1.85316" fill="url(#paint3_linear_730_10102)"/>
<rect x="94.1899" y="189.927" width="34.5924" height="3.70633" rx="1.85316" fill="url(#paint4_linear_730_10102)"/>
<rect x="94.1899" y="172.631" width="34.5924" height="3.70633" rx="1.85316" fill="url(#paint5_linear_730_10102)"/>
<rect x="94.1899" y="203.517" width="34.5924" height="3.70633" rx="1.85316" fill="url(#paint6_linear_730_10102)"/>
<rect x="124.251" y="218.342" width="23.0616" height="2.47088" rx="1.23544" fill="url(#paint7_linear_730_10102)"/>
<rect x="129.602" y="223.284" width="12.7662" height="2.47088" rx="1.23544" fill="url(#paint8_linear_730_10102)"/>
<rect x="158.021" y="145.451" width="18.9434" height="3.70633" rx="1.85316" fill="url(#paint9_linear_730_10102)"/>
<rect x="158.021" y="159.041" width="18.9434" height="3.70633" rx="1.85316" fill="url(#paint10_linear_730_10102)"/>
<rect x="158.021" y="189.927" width="18.9434" height="3.70633" rx="1.85316" fill="url(#paint11_linear_730_10102)"/>
<rect x="158.021" y="172.631" width="18.9434" height="3.70633" rx="1.85316" fill="url(#paint12_linear_730_10102)"/>
<rect x="158.021" y="203.517" width="18.9434" height="3.70633" rx="1.85316" fill="url(#paint13_linear_730_10102)"/>
<path d="M272.953 107.358H202.176C194.997 107.358 189.176 113.178 189.176 120.358V224.903C189.176 232.083 194.997 237.903 202.176 237.903H272.953C280.132 237.903 285.953 232.083 285.953 224.903V120.358C285.953 113.178 280.132 107.358 272.953 107.358Z" fill="white"/>
<path d="M196.591 154.099H278.748" stroke="black"/>
<path d="M196.591 167.689H278.748" stroke="black"/>
<path d="M196.591 182.514H278.748" stroke="black" stroke-dasharray="9 9"/>
<path d="M196.591 198.575H278.748" stroke="black"/>
<rect x="196.179" y="119.094" width="75.362" height="3.70633" rx="1.85316" fill="url(#paint14_linear_730_10102)"/>
<rect x="196.179" y="128.155" width="47.7704" height="3.70633" rx="1.85316" fill="url(#paint15_linear_730_10102)"/>
<rect x="196.179" y="145.451" width="34.5924" height="3.70633" rx="1.85316" fill="url(#paint16_linear_730_10102)"/>
<rect x="196.179" y="159.041" width="34.5924" height="3.70633" rx="1.85316" fill="url(#paint17_linear_730_10102)"/>
<rect x="196.179" y="189.927" width="34.5924" height="3.70633" rx="1.85316" fill="url(#paint18_linear_730_10102)"/>
<rect x="196.179" y="172.63" width="34.5924" height="3.70633" rx="1.85316" fill="url(#paint19_linear_730_10102)"/>
<rect x="196.179" y="203.517" width="34.5924" height="3.70633" rx="1.85316" fill="url(#paint20_linear_730_10102)"/>
<rect x="226.24" y="218.342" width="23.0616" height="2.47088" rx="1.23544" fill="url(#paint21_linear_730_10102)"/>
<rect x="231.591" y="223.284" width="12.7662" height="2.47088" rx="1.23544" fill="url(#paint22_linear_730_10102)"/>
<rect x="260.01" y="145.451" width="18.9434" height="3.70633" rx="1.85316" fill="url(#paint23_linear_730_10102)"/>
<rect x="260.01" y="159.041" width="18.9434" height="3.70633" rx="1.85316" fill="url(#paint24_linear_730_10102)"/>
<rect x="260.01" y="189.927" width="18.9434" height="3.70633" rx="1.85316" fill="url(#paint25_linear_730_10102)"/>
<rect x="260.01" y="172.63" width="18.9434" height="3.70633" rx="1.85316" fill="url(#paint26_linear_730_10102)"/>
<rect x="260.01" y="203.517" width="18.9434" height="3.70633" rx="1.85316" fill="url(#paint27_linear_730_10102)"/>
<path d="M184.429 400.218V316.154" stroke="#75F7BB" stroke-width="3" stroke-linecap="round" stroke-dasharray="14 14"/>
<path d="M184.429 571.393V487.329" stroke="#75F7BB" stroke-width="3" stroke-linecap="round" stroke-dasharray="14 14"/>
<rect x="157.603" y="414.511" width="48.5486" height="47.8791" rx="6.5" fill="#0F1546" stroke="#1BFCB6" stroke-width="3"/>
<rect x="167.645" y="424.553" width="48.5486" height="47.8791" rx="6.5" fill="#0F1546" stroke="#1BFCB6" stroke-width="3"/>
<path d="M182.211 447.823H202.295" stroke="#75F7BB" stroke-width="3" stroke-linecap="round"/>
<path d="M192.253 457.866L192.253 437.782" stroke="#75F7BB" stroke-width="3" stroke-linecap="round"/>
<defs>
<linearGradient id="paint0_linear_730_10102" x1="95.6313" y1="120.742" x2="158.639" y2="120.742" gradientUnits="userSpaceOnUse">
<stop stop-color="#0F1546"/>
<stop offset="1" stop-color="white" stop-opacity="0"/>
</linearGradient>
<linearGradient id="paint1_linear_730_10102" x1="95.1036" y1="129.802" x2="135.043" y2="129.802" gradientUnits="userSpaceOnUse">
<stop stop-color="#0F1546"/>
<stop offset="1" stop-color="white" stop-opacity="0"/>
</linearGradient>
<linearGradient id="paint2_linear_730_10102" x1="94.8515" y1="147.098" x2="123.773" y2="147.098" gradientUnits="userSpaceOnUse">
<stop stop-color="#0F1546"/>
<stop offset="1" stop-color="white" stop-opacity="0"/>
</linearGradient>
<linearGradient id="paint3_linear_730_10102" x1="94.8515" y1="160.688" x2="123.773" y2="160.688" gradientUnits="userSpaceOnUse">
<stop stop-color="#0F1546"/>
<stop offset="1" stop-color="white" stop-opacity="0"/>
</linearGradient>
<linearGradient id="paint4_linear_730_10102" x1="94.8515" y1="191.574" x2="123.773" y2="191.574" gradientUnits="userSpaceOnUse">
<stop stop-color="#0F1546"/>
<stop offset="1" stop-color="white" stop-opacity="0"/>
</linearGradient>
<linearGradient id="paint5_linear_730_10102" x1="94.8515" y1="174.278" x2="123.773" y2="174.278" gradientUnits="userSpaceOnUse">
<stop stop-color="#0F1546"/>
<stop offset="1" stop-color="white" stop-opacity="0"/>
</linearGradient>
<linearGradient id="paint6_linear_730_10102" x1="94.8515" y1="205.164" x2="123.773" y2="205.164" gradientUnits="userSpaceOnUse">
<stop stop-color="#0F1546"/>
<stop offset="1" stop-color="white" stop-opacity="0"/>
</linearGradient>
<linearGradient id="paint7_linear_730_10102" x1="124.692" y1="219.44" x2="143.973" y2="219.44" gradientUnits="userSpaceOnUse">
<stop stop-color="#0F1546"/>
<stop offset="1" stop-color="white" stop-opacity="0"/>
</linearGradient>
<linearGradient id="paint8_linear_730_10102" x1="129.846" y1="224.382" x2="140.52" y2="224.382" gradientUnits="userSpaceOnUse">
<stop stop-color="#0F1546"/>
<stop offset="1" stop-color="white" stop-opacity="0"/>
</linearGradient>
<linearGradient id="paint9_linear_730_10102" x1="158.383" y1="147.098" x2="174.221" y2="147.098" gradientUnits="userSpaceOnUse">
<stop stop-color="#0F1546"/>
<stop offset="1" stop-color="white" stop-opacity="0"/>
</linearGradient>
<linearGradient id="paint10_linear_730_10102" x1="158.383" y1="160.688" x2="174.221" y2="160.688" gradientUnits="userSpaceOnUse">
<stop stop-color="#0F1546"/>
<stop offset="1" stop-color="white" stop-opacity="0"/>
</linearGradient>
<linearGradient id="paint11_linear_730_10102" x1="158.383" y1="191.574" x2="174.221" y2="191.574" gradientUnits="userSpaceOnUse">
<stop stop-color="#0F1546"/>
<stop offset="1" stop-color="white" stop-opacity="0"/>
</linearGradient>
<linearGradient id="paint12_linear_730_10102" x1="158.383" y1="174.278" x2="174.221" y2="174.278" gradientUnits="userSpaceOnUse">
<stop stop-color="#0F1546"/>
<stop offset="1" stop-color="white" stop-opacity="0"/>
</linearGradient>
<linearGradient id="paint13_linear_730_10102" x1="158.383" y1="205.164" x2="174.221" y2="205.164" gradientUnits="userSpaceOnUse">
<stop stop-color="#0F1546"/>
<stop offset="1" stop-color="white" stop-opacity="0"/>
</linearGradient>
<linearGradient id="paint14_linear_730_10102" x1="197.621" y1="120.742" x2="260.628" y2="120.742" gradientUnits="userSpaceOnUse">
<stop stop-color="#0F1546"/>
<stop offset="1" stop-color="white" stop-opacity="0"/>
</linearGradient>
<linearGradient id="paint15_linear_730_10102" x1="197.093" y1="129.802" x2="237.032" y2="129.802" gradientUnits="userSpaceOnUse">
<stop stop-color="#0F1546"/>
<stop offset="1" stop-color="white" stop-opacity="0"/>
</linearGradient>
<linearGradient id="paint16_linear_730_10102" x1="196.841" y1="147.098" x2="225.762" y2="147.098" gradientUnits="userSpaceOnUse">
<stop stop-color="#0F1546"/>
<stop offset="1" stop-color="white" stop-opacity="0"/>
</linearGradient>
<linearGradient id="paint17_linear_730_10102" x1="196.841" y1="160.688" x2="225.762" y2="160.688" gradientUnits="userSpaceOnUse">
<stop stop-color="#0F1546"/>
<stop offset="1" stop-color="white" stop-opacity="0"/>
</linearGradient>
<linearGradient id="paint18_linear_730_10102" x1="196.841" y1="191.574" x2="225.762" y2="191.574" gradientUnits="userSpaceOnUse">
<stop stop-color="#0F1546"/>
<stop offset="1" stop-color="white" stop-opacity="0"/>
</linearGradient>
<linearGradient id="paint19_linear_730_10102" x1="196.841" y1="174.278" x2="225.762" y2="174.278" gradientUnits="userSpaceOnUse">
<stop stop-color="#0F1546"/>
<stop offset="1" stop-color="white" stop-opacity="0"/>
</linearGradient>
<linearGradient id="paint20_linear_730_10102" x1="196.841" y1="205.164" x2="225.762" y2="205.164" gradientUnits="userSpaceOnUse">
<stop stop-color="#0F1546"/>
<stop offset="1" stop-color="white" stop-opacity="0"/>
</linearGradient>
<linearGradient id="paint21_linear_730_10102" x1="226.681" y1="219.44" x2="245.962" y2="219.44" gradientUnits="userSpaceOnUse">
<stop stop-color="#0F1546"/>
<stop offset="1" stop-color="white" stop-opacity="0"/>
</linearGradient>
<linearGradient id="paint22_linear_730_10102" x1="231.835" y1="224.382" x2="242.509" y2="224.382" gradientUnits="userSpaceOnUse">
<stop stop-color="#0F1546"/>
<stop offset="1" stop-color="white" stop-opacity="0"/>
</linearGradient>
<linearGradient id="paint23_linear_730_10102" x1="260.373" y1="147.098" x2="276.211" y2="147.098" gradientUnits="userSpaceOnUse">
<stop stop-color="#0F1546"/>
<stop offset="1" stop-color="white" stop-opacity="0"/>
</linearGradient>
<linearGradient id="paint24_linear_730_10102" x1="260.373" y1="160.688" x2="276.211" y2="160.688" gradientUnits="userSpaceOnUse">
<stop stop-color="#0F1546"/>
<stop offset="1" stop-color="white" stop-opacity="0"/>
</linearGradient>
<linearGradient id="paint25_linear_730_10102" x1="260.373" y1="191.574" x2="276.211" y2="191.574" gradientUnits="userSpaceOnUse">
<stop stop-color="#0F1546"/>
<stop offset="1" stop-color="white" stop-opacity="0"/>
</linearGradient>
<linearGradient id="paint26_linear_730_10102" x1="260.373" y1="174.278" x2="276.211" y2="174.278" gradientUnits="userSpaceOnUse">
<stop stop-color="#0F1546"/>
<stop offset="1" stop-color="white" stop-opacity="0"/>
</linearGradient>
<linearGradient id="paint27_linear_730_10102" x1="260.373" y1="205.164" x2="276.211" y2="205.164" gradientUnits="userSpaceOnUse">
<stop stop-color="#0F1546"/>
<stop offset="1" stop-color="white" stop-opacity="0"/>
</linearGradient>
</defs>
</svg>

<svg xmlns="http://www.w3.org/2000/svg" xmlns:xlink="http://www.w3.org/1999/xlink" width="375" height="779" fill="none" xmlns:v="https://vecta.io/nano"><g stroke="#1bfcb6" stroke-width="3"><path d="M160.429 604.27h10.042m-10.042 10.042h44.187m-44.187 8.034h44.187m-44.187 8.034h44.187m-56.237 40.17v-78.365a8 8 0 0 1 8-8h44.924a8 8 0 0 1 5.657 2.343l9.373 9.373a8 8 0 0 1 2.343 5.657v68.992m-.001-36.153h28.189c5.118 0 8.919 4.74 7.809 9.736l-5.87 26.417m-102.435-36.153H118.18c-5.118 0-8.92 4.74-7.809 9.736l5.87 26.417M130.304 777v-26.145a8 8 0 0 1 8-8h90.45a8 8 0 0 1 8 8V777M92.141 732.813h184.781m-40.17-23.097h0a5.02 5.02 0 0 1-5.021 5.021h-96.407c-2.774 0-5.022-2.248-5.022-5.021h0c0-2.774 2.248-5.022 5.022-5.022h96.407c2.773 0 5.021 2.248 5.021 5.022z"/><path d="M92.141 769v-90.45a8 8 0 0 1 8-8h168.781a8 8 0 0 1 8 8V769a8 8 0 0 1-8 8H100.141a8 8 0 0 1-8-8z"/><circle cx="232.737" cy="686.617" r="6.534"/></g><g stroke="#75f7bb" stroke-linejoin="round"><path d="M46.978 296.523h280.917" stroke-width="3" stroke-linecap="round"/><path d="M78.19 109.245c0-4.139 1.644-8.108 4.571-11.035s6.896-4.571 11.035-4.571h187.278a15.61 15.61 0 0 1 15.607 15.606v124.852a15.61 15.61 0 0 1-15.607 15.607H93.796a15.61 15.61 0 0 1-15.607-15.607V109.245z" stroke-width="3"/></g><path d="M170.963 107.358h-70.776c-7.18 0-13 5.82-13 13v104.545c0 7.18 5.82 13 13 13h70.776c7.18 0 13-5.82 13-13V120.358c0-7.18-5.82-13-13-13z" fill="#fff"/><g stroke="#000"><path d="M94.602 154.099h82.156m-82.156 13.59h82.156"/><path d="M94.602 182.514h82.156" stroke-dasharray="9 9"/><path d="M94.602 198.575h82.156"/></g><rect x="94.19" y="119.094" width="75.362" height="3.706" rx="1.853" fill="url(#A)"/><rect x="94.19" y="128.155" width="47.77" height="3.706" rx="1.853" fill="url(#B)"/><rect x="94.19" y="145.451" width="34.592" height="3.706" rx="1.853" fill="url(#C)"/><rect x="94.19" y="159.041" width="34.592" height="3.706" rx="1.853" fill="url(#D)"/><rect x="94.19" y="189.927" width="34.592" height="3.706" rx="1.853" fill="url(#E)"/><rect x="94.19" y="172.631" width="34.592" height="3.706" rx="1.853" fill="url(#F)"/><rect x="94.19" y="203.517" width="34.592" height="3.706" rx="1.853" fill="url(#G)"/><rect x="124.251" y="218.342" width="23.062" height="2.471" rx="1.235" fill="url(#H)"/><rect x="129.602" y="223.284" width="12.766" height="2.471" rx="1.235" fill="url(#I)"/><rect x="158.021" y="145.451" width="18.943" height="3.706" rx="1.853" fill="url(#J)"/><rect x="158.021" y="159.041" width="18.943" height="3.706" rx="1.853" fill="url(#K)"/><rect x="158.021" y="189.927" width="18.943" height="3.706" rx="1.853" fill="url(#L)"/><rect x="158.021" y="172.631" width="18.943" height="3.706" rx="1.853" fill="url(#M)"/><rect x="158.021" y="203.517" width="18.943" height="3.706" rx="1.853" fill="url(#N)"/><path d="M272.953 107.358h-70.777c-7.179 0-13 5.82-13 13v104.545c0 7.18 5.821 13 13 13h70.777c7.179 0 13-5.82 13-13V120.358c0-7.18-5.821-13-13-13z" fill="#fff"/><g stroke="#000"><path d="M196.591 154.099h82.157m-82.157 13.59h82.157"/><path d="M196.591 182.514h82.157" stroke-dasharray="9 9"/><path d="M196.591 198.575h82.157"/></g><rect x="196.179" y="119.094" width="75.362" height="3.706" rx="1.853" fill="url(#O)"/><rect x="196.179" y="128.155" width="47.77" height="3.706" rx="1.853" fill="url(#P)"/><rect x="196.179" y="145.451" width="34.592" height="3.706" rx="1.853" fill="url(#Q)"/><rect x="196.179" y="159.041" width="34.592" height="3.706" rx="1.853" fill="url(#R)"/><rect x="196.179" y="189.927" width="34.592" height="3.706" rx="1.853" fill="url(#S)"/><rect x="196.179" y="172.63" width="34.592" height="3.706" rx="1.853" fill="url(#T)"/><rect x="196.179" y="203.517" width="34.592" height="3.706" rx="1.853" fill="url(#U)"/><rect x="226.24" y="218.342" width="23.062" height="2.471" rx="1.235" fill="url(#V)"/><rect x="231.591" y="223.284" width="12.766" height="2.471" rx="1.235" fill="url(#W)"/><rect x="260.01" y="145.451" width="18.943" height="3.706" rx="1.853" fill="url(#X)"/><rect x="260.01" y="159.041" width="18.943" height="3.706" rx="1.853" fill="url(#Y)"/><rect x="260.01" y="189.927" width="18.943" height="3.706" rx="1.853" fill="url(#Z)"/><rect x="260.01" y="172.63" width="18.943" height="3.706" rx="1.853" fill="url(#a)"/><rect x="260.01" y="203.517" width="18.943" height="3.706" rx="1.853" fill="url(#b)"/><g stroke-width="3"><path d="M184.429 400.218v-84.064m0 255.239v-84.064" stroke="#75f7bb" stroke-linecap="round" stroke-dasharray="14 14"/><g stroke="#1bfcb6" fill="#0f1546"><rect x="157.603" y="414.511" width="48.549" height="47.879" rx="6.5"/><rect x="167.645" y="424.553" width="48.549" height="47.879" rx="6.5"/></g><g stroke="#75f7bb" stroke-linecap="round"><path d="M182.211 447.823h20.084"/><path d="M192.253 457.866v-20.084"/></g></g><defs><linearGradient id="A" x1="95.631" y1="120.742" x2="158.639" y2="120.742" xlink:href="#c"><stop stop-color="#0f1546"/><stop offset="1" stop-color="#fff" stop-opacity="0"/></linearGradient><linearGradient id="B" x1="95.104" y1="129.802" x2="135.043" y2="129.802" xlink:href="#c"><stop stop-color="#0f1546"/><stop offset="1" stop-color="#fff" stop-opacity="0"/></linearGradient><linearGradient id="C" x1="94.852" y1="147.098" x2="123.773" y2="147.098" xlink:href="#c"><stop stop-color="#0f1546"/><stop offset="1" stop-color="#fff" stop-opacity="0"/></linearGradient><linearGradient id="D" x1="94.852" y1="160.688" x2="123.773" y2="160.688" xlink:href="#c"><stop stop-color="#0f1546"/><stop offset="1" stop-color="#fff" stop-opacity="0"/></linearGradient><linearGradient id="E" x1="94.852" y1="191.574" x2="123.773" y2="191.574" xlink:href="#c"><stop stop-color="#0f1546"/><stop offset="1" stop-color="#fff" stop-opacity="0"/></linearGradient><linearGradient id="F" x1="94.852" y1="174.278" x2="123.773" y2="174.278" xlink:href="#c"><stop stop-color="#0f1546"/><stop offset="1" stop-color="#fff" stop-opacity="0"/></linearGradient><linearGradient id="G" x1="94.852" y1="205.164" x2="123.773" y2="205.164" xlink:href="#c"><stop stop-color="#0f1546"/><stop offset="1" stop-color="#fff" stop-opacity="0"/></linearGradient><linearGradient id="H" x1="124.692" y1="219.44" x2="143.973" y2="219.44" xlink:href="#c"><stop stop-color="#0f1546"/><stop offset="1" stop-color="#fff" stop-opacity="0"/></linearGradient><linearGradient id="I" x1="129.846" y1="224.382" x2="140.52" y2="224.382" xlink:href="#c"><stop stop-color="#0f1546"/><stop offset="1" stop-color="#fff" stop-opacity="0"/></linearGradient><linearGradient id="J" x1="158.383" y1="147.098" x2="174.221" y2="147.098" xlink:href="#c"><stop stop-color="#0f1546"/><stop offset="1" stop-color="#fff" stop-opacity="0"/></linearGradient><linearGradient id="K" x1="158.383" y1="160.688" x2="174.221" y2="160.688" xlink:href="#c"><stop stop-color="#0f1546"/><stop offset="1" stop-color="#fff" stop-opacity="0"/></linearGradient><linearGradient id="L" x1="158.383" y1="191.574" x2="174.221" y2="191.574" xlink:href="#c"><stop stop-color="#0f1546"/><stop offset="1" stop-color="#fff" stop-opacity="0"/></linearGradient><linearGradient id="M" x1="158.383" y1="174.278" x2="174.221" y2="174.278" xlink:href="#c"><stop stop-color="#0f1546"/><stop offset="1" stop-color="#fff" stop-opacity="0"/></linearGradient><linearGradient id="N" x1="158.383" y1="205.164" x2="174.221" y2="205.164" xlink:href="#c"><stop stop-color="#0f1546"/><stop offset="1" stop-color="#fff" stop-opacity="0"/></linearGradient><linearGradient id="O" x1="197.621" y1="120.742" x2="260.628" y2="120.742" xlink:href="#c"><stop stop-color="#0f1546"/><stop offset="1" stop-color="#fff" stop-opacity="0"/></linearGradient><linearGradient id="P" x1="197.093" y1="129.802" x2="237.032" y2="129.802" xlink:href="#c"><stop stop-color="#0f1546"/><stop offset="1" stop-color="#fff" stop-opacity="0"/></linearGradient><linearGradient id="Q" x1="196.841" y1="147.098" x2="225.762" y2="147.098" xlink:href="#c"><stop stop-color="#0f1546"/><stop offset="1" stop-color="#fff" stop-opacity="0"/></linearGradient><linearGradient id="R" x1="196.841" y1="160.688" x2="225.762" y2="160.688" xlink:href="#c"><stop stop-color="#0f1546"/><stop offset="1" stop-color="#fff" stop-opacity="0"/></linearGradient><linearGradient id="S" x1="196.841" y1="191.574" x2="225.762" y2="191.574" xlink:href="#c"><stop stop-color="#0f1546"/><stop offset="1" stop-color="#fff" stop-opacity="0"/></linearGradient><linearGradient id="T" x1="196.841" y1="174.278" x2="225.762" y2="174.278" xlink:href="#c"><stop stop-color="#0f1546"/><stop offset="1" stop-color="#fff" stop-opacity="0"/></linearGradient><linearGradient id="U" x1="196.841" y1="205.164" x2="225.762" y2="205.164" xlink:href="#c"><stop stop-color="#0f1546"/><stop offset="1" stop-color="#fff" stop-opacity="0"/></linearGradient><linearGradient id="V" x1="226.681" y1="219.44" x2="245.962" y2="219.44" xlink:href="#c"><stop stop-color="#0f1546"/><stop offset="1" stop-color="#fff" stop-opacity="0"/></linearGradient><linearGradient id="W" x1="231.835" y1="224.382" x2="242.509" y2="224.382" xlink:href="#c"><stop stop-color="#0f1546"/><stop offset="1" stop-color="#fff" stop-opacity="0"/></linearGradient><linearGradient id="X" x1="260.373" y1="147.098" x2="276.211" y2="147.098" xlink:href="#c"><stop stop-color="#0f1546"/><stop offset="1" stop-color="#fff" stop-opacity="0"/></linearGradient><linearGradient id="Y" x1="260.373" y1="160.688" x2="276.211" y2="160.688" xlink:href="#c"><stop stop-color="#0f1546"/><stop offset="1" stop-color="#fff" stop-opacity="0"/></linearGradient><linearGradient id="Z" x1="260.373" y1="191.574" x2="276.211" y2="191.574" xlink:href="#c"><stop stop-color="#0f1546"/><stop offset="1" stop-color="#fff" stop-opacity="0"/></linearGradient><linearGradient id="a" x1="260.373" y1="174.278" x2="276.211" y2="174.278" xlink:href="#c"><stop stop-color="#0f1546"/><stop offset="1" stop-color="#fff" stop-opacity="0"/></linearGradient><linearGradient id="b" x1="260.373" y1="205.164" x2="276.211" y2="205.164" xlink:href="#c"><stop stop-color="#0f1546"/><stop offset="1" stop-color="#fff" stop-opacity="0"/></linearGradient><linearGradient id="c" gradientUnits="userSpaceOnUse"/></defs></svg>
